X:1
T:Road to Gallarus
C:Jens Wollschlger (6. April 2006)
M:6/8
R:Jig
K:D
~G3 BAG|dBG dBG|~G3 BAG|AFD DEF|
~G3 BGB|dBd g2e|dBG GAB|1AGF GdB:|2AGF GBd||
~e3 edB|eBg edB|ABc dcB|AdG FED|
EEG BGd|Beg e2d|cde ABc|1B3 B2d:|2B3 B2A||
